public/svgs/vision/vision-decoration-logo-5.svg

<svg width="1em" height="1em" viewBox="0 0 48 48" fill="current" xmlns="http://www.w3.org/2000/svg">
    <path
        d="M14.4951 38.5439L14.2031 38.6162L15.4873 39.3623C15.5047 39.3724 15.5219 39.3826 15.5391 39.3926C15.3408 39.3893 15.13 39.3689 14.9092 39.3262C14.5718 39.2608 14.226 39.1466 13.8867 38.9912C13.9258 38.9556 13.9647 38.9161 13.999 38.8691C14.0908 38.7434 14.1336 38.6093 14.1523 38.4854L14.4951 38.5439ZM28.0166 4.22266C30.0758 8.47354 29.4573 13.0208 26.2373 16.8467L25.8828 17.252C25.4068 17.7794 24.9324 18.3083 24.459 18.8379L23.041 20.4307C22.8083 20.6932 22.6184 20.9811 22.4551 21.2422L23.3076 22.0527C26.4992 19.8223 29.364 17.1756 30.6396 13.1875L30.7578 12.7969C30.8104 12.6139 30.8608 12.538 30.9023 12.4941C30.9338 12.4609 30.9862 12.4185 31.0938 12.3711L31.2197 12.3223C33.8102 11.4336 35.4785 9.6393 36.5029 7.31055C36.5121 7.50306 36.5169 7.69408 36.5098 7.88477L36.4834 8.26953C36.0401 12.8938 33.6113 16.0327 29.6201 18.0645L29.2295 18.2578C28.8503 18.4393 28.4553 18.5988 28.042 18.7607C27.6345 18.9204 27.203 19.0851 26.7822 19.2686L27.0879 20.4141C30.0176 20.0904 32.7035 19.0903 35.0068 17.2139L35.4619 16.8262C36.998 15.4653 38.0825 13.8558 38.7705 12.0469C38.7405 13.7473 38.5352 15.4235 38.0967 17.0674C37.5433 19.1391 36.3208 20.769 34.6953 22.1475L34.3652 22.4199C33.8248 22.8534 33.2744 23.2616 32.7158 23.668L31.0156 24.9062C30.1118 25.5776 29.2719 26.3447 28.5801 27.293C27.461 25.7113 25.3696 25.1505 23.6025 26.1211L23.1709 26.3584L23.3193 26.8281C23.3801 27.0202 23.4405 27.2118 23.502 27.4062C19.7612 28.4196 18.1699 31.4518 16.8701 34.5605L16.5986 35.2168L16.2236 36.1387L17.2139 36.041C17.3404 36.0286 17.465 36.016 17.5879 36.0039C17.2275 36.2603 16.8601 36.4431 16.4365 36.5215L15.9697 36.6084L15.9463 37.082C15.9447 37.1149 15.943 37.1479 15.9414 37.1807C15.9398 37.2135 15.9381 37.247 15.9365 37.2803L15.9121 37.7773L16.3965 37.8926C16.4862 37.914 16.5764 37.9356 16.666 37.957C16.408 38.0531 16.078 38.1537 15.6445 38.2607L14.6953 38.4941L14.8203 38.0547C14.8555 37.9294 14.8711 37.8028 14.8809 37.7324C14.882 37.7241 14.8837 37.7163 14.8848 37.709C14.9858 37.6757 15.0604 37.6228 15.1064 37.5811C15.1693 37.524 15.2074 37.4658 15.2275 37.4316C15.2675 37.3638 15.289 37.2997 15.2988 37.2676C15.3207 37.1963 15.3334 37.1218 15.3418 37.0664C15.3507 37.0081 15.358 36.945 15.3633 36.8838L15.373 36.7109V36.71C15.3734 36.692 15.3721 36.6736 15.3721 36.6553C15.3824 36.6564 15.3929 36.658 15.4033 36.6592L15.9385 36.7188L16.0547 36.1924C16.1677 35.6812 16.0951 35.2357 15.9629 34.8408C15.9456 34.7891 15.9236 34.7373 15.9033 34.6846C15.9457 34.6865 15.989 34.6884 16.0332 34.6904L16.5625 34.7148L16.6514 34.1924C16.765 33.5254 16.8805 32.8456 17.0156 32.0479L17.3018 30.3623L16.0254 31.5C15.3623 32.0908 14.7123 32.6297 14.123 33.2021L13.875 33.4492C13.6378 33.6912 13.5907 34.0166 13.5732 34.1846C13.5674 34.2406 13.5651 34.3018 13.5625 34.3623C13.5114 34.3489 13.4585 34.338 13.4053 34.3301C13.3308 34.319 13.2358 34.3109 13.1338 34.3213C13.0618 34.3286 12.9578 34.3483 12.8496 34.4033L12.7402 34.4707L12.7373 34.4736C12.5315 34.6317 12.4429 34.8617 12.4053 34.9961C12.3812 35.082 12.3646 35.1826 12.3604 35.2881L12.2188 35.2246L11.9297 35.4658C11.6016 35.74 11.2817 36.0078 10.8867 36.3379L10.4961 36.6641L10.5166 36.6992C10.5101 36.6976 10.5036 36.696 10.4971 36.6943L9.28711 36.3828L9.67871 37.252L9.59961 37.2334L9.36426 37.5703C9.35247 37.5872 9.34146 37.6038 9.33301 37.6162C9.32385 37.6297 9.31684 37.6394 9.31055 37.6484L9.04102 38.0322C8.61846 37.8644 8.19803 37.5803 7.81836 37.1875C7.27276 36.623 6.86303 35.8863 6.69043 35.0977C6.82998 35.1409 6.97739 35.1648 7.13281 35.1553C7.56568 35.1286 7.88569 34.8747 8.10938 34.5547L8.19922 34.4141C8.85019 33.3012 9.44366 31.9449 8.80664 30.4199L8.66309 30.1123C8.16681 29.1614 7.95183 28.0224 7.9375 26.918C7.93338 26.6001 7.94747 26.2889 7.97363 25.9902C8.00248 26.0661 8.03171 26.1419 8.06055 26.2178L8.23828 26.6855L8.73047 26.5947C8.75635 26.59 8.78319 26.5853 8.81348 26.5801C8.84257 26.575 8.87528 26.5695 8.9082 26.5635L9.375 26.4775L9.39941 26.0039C9.53003 23.3858 10.1063 20.9438 11.2461 18.708C11.2164 19.6351 11.2717 20.5606 11.3877 21.4834L12.5664 21.5508C12.8871 20.2397 13.4233 19.0117 14.0244 17.7695C14.5433 16.6975 15.1227 15.5921 15.6172 14.4541L15.8232 13.9648C16.5873 12.0898 17.1192 10.15 17.1494 8.11816C17.1751 8.18522 17.2024 8.25278 17.2275 8.32129C17.6118 9.36826 17.9118 10.5391 18.0332 11.5625L18.0742 11.9912C18.2366 14.3009 17.7322 16.5235 16.9385 18.7695L17.9697 19.3477C18.2286 19.0287 18.4255 18.7561 18.6406 18.502L18.8643 18.2529H18.8652C19.5868 17.5045 20.3119 16.7588 21.0391 16.0146L23.2246 13.7852C24.6514 12.334 25.9055 10.7257 26.8184 8.84863L26.8174 8.84766C27.3475 7.75884 27.6857 6.84633 27.8662 5.78516C27.9488 5.29957 27.9947 4.78867 28.0166 4.22266ZM15.0391 25.0752C14.4858 25.7053 13.9239 26.3329 13.374 26.9688L12.8291 27.6074H12.8281C12.6291 27.8446 12.4264 28.1641 12.3223 28.5186L12.2842 28.6719V28.6738C12.1353 29.4159 12.0516 30.1937 11.9307 31.0293L11.6826 32.7461L12.9385 31.5498C13.1979 31.3027 13.4458 31.0206 13.6094 30.8506C13.7502 30.7042 13.857 30.6089 13.9512 30.5469L14.041 30.4951L14.042 30.4941C14.6252 30.2157 15.0284 29.8228 15.2939 29.3418C15.4872 28.9917 15.5977 28.6122 15.666 28.2314L15.7217 27.8516C15.7832 27.3287 15.8842 26.8416 15.9756 26.2725C16.016 26.0226 16.052 25.7667 16.083 25.5596L16.3848 23.542L15.0391 25.0752Z"
        fill="current" stroke="current" stroke-width="1.2" />
    <path
        d="M40.7026 14.9414C41.2878 17.0039 41.5806 19.0607 41.2817 21.1514L41.2036 21.623C40.7255 24.1931 39.5085 26.3923 37.8218 28.374L37.478 28.7676C36.1616 30.2384 34.6772 31.5218 33.1255 32.7666L31.5552 34.0039C29.709 35.4432 27.969 37.0327 26.4917 38.9043L26.1997 39.2822C24.9105 40.9914 23.9177 42.8545 23.4546 44.9561C23.0522 43.8894 22.8343 42.7743 22.8042 41.6045L22.8013 41.2383C22.8174 39.0247 23.5734 37.0499 24.8472 35.3057L25.1089 34.96C26.4051 33.3043 27.8386 31.7997 29.2681 30.2051L29.8804 29.5156C30.334 28.9985 30.7792 28.4748 31.2212 27.9561C31.4428 27.696 31.6639 27.437 31.8853 27.1797L32.5522 26.4131C32.6945 26.2519 32.8457 26.1133 32.9946 26.0137L33.1421 25.9277C36.3944 24.3249 38.815 21.9076 39.9927 18.376L40.1021 18.0312C40.4131 17.0094 40.6063 15.9789 40.7026 14.9414Z"
        fill="current" stroke="current" stroke-width="1.2" />
    <path
        d="M22.3147 8.10767C22.5276 8.89456 22.5395 9.69852 22.3284 10.5168L22.2483 10.7952C21.9995 11.5746 21.6415 12.346 21.1946 13.0178L20.9983 13.2991L20.9973 13.3C20.6067 13.832 20.1698 14.312 19.6995 14.8069C19.7144 14.6629 19.7277 14.5178 19.7346 14.3713L19.7415 14.0344V14.0334C19.7324 13.118 19.9419 12.376 20.4426 11.6458L20.675 11.3333L20.676 11.3323C21.4507 10.3653 21.9789 9.27194 22.3147 8.10767Z"
        fill="current" stroke="current" stroke-width="1.2" />
</svg>

<svg xmlns="http://www.w3.org/2000/svg" width="1em" height="1em" fill="current" viewBox="0 0 48 48"><path stroke="current" stroke-width="1.2" d="m14.495 38.544-.292.072 1.284.746.052.03a3.6 3.6 0 0 1-.63-.066 4.6 4.6 0 0 1-1.022-.335 1 1 0 0 0 .112-.122.86.86 0 0 0 .153-.384zM28.017 4.223c2.059 4.25 1.44 8.798-1.78 12.624l-.354.405q-.713.79-1.424 1.586l-1.418 1.593c-.233.262-.423.55-.586.811l.853.81c3.191-2.23 6.056-4.876 7.332-8.864l.118-.391c.052-.183.103-.259.144-.303a.6.6 0 0 1 .192-.123l.126-.049c2.59-.888 4.258-2.683 5.283-5.011q.016.288.007.574l-.027.385c-.443 4.624-2.872 7.763-6.863 9.795l-.39.193c-.38.181-.775.34-1.188.503-.408.16-.839.324-1.26.508l.306 1.145c2.93-.324 5.615-1.324 7.919-3.2l.455-.388a12 12 0 0 0 3.308-4.78c-.03 1.701-.235 3.378-.673 5.021-.554 2.072-1.776 3.702-3.402 5.08l-.33.273c-.54.433-1.09.842-1.65 1.248l-1.7 1.238c-.903.672-1.743 1.439-2.435 2.387-1.119-1.582-3.21-2.142-4.977-1.172l-.432.237.148.47.183.578c-3.74 1.014-5.332 4.046-6.632 7.154l-.271.657-.375.922.99-.098.374-.037c-.36.256-.728.44-1.152.518l-.466.086-.024.474-.005.099-.005.1-.024.496.484.116.27.064a9 9 0 0 1-1.021.304l-.95.233.125-.44c.035-.125.051-.251.06-.322l.005-.023a.62.62 0 0 0 .342-.277.8.8 0 0 0 .072-.164c.022-.072.034-.146.043-.202a3 3 0 0 0 .021-.182l.01-.173v-.056l.03.004.535.06.117-.527c.113-.51.04-.956-.092-1.351-.017-.052-.04-.104-.06-.156l.13.005.53.025.088-.523.365-2.144.286-1.686-1.277 1.138c-.663.59-1.313 1.13-1.902 1.702l-.248.247c-.237.242-.284.568-.302.736q-.008.085-.01.177a2 2 0 0 0-.158-.032 1 1 0 0 0-.271-.009.8.8 0 0 0-.284.082l-.11.068-.003.003a1 1 0 0 0-.332.522c-.024.086-.04.187-.045.292l-.141-.063-.29.24-1.042.873-.39.326.02.035-.02-.005-1.21-.311.392.869-.08-.019-.235.337-.031.046-.022.032-.27.384a3.55 3.55 0 0 1-1.223-.844 4.4 4.4 0 0 1-1.128-2.09c.14.043.287.067.443.057.433-.026.753-.28.976-.6l.09-.14c.651-1.114 1.245-2.47.608-3.995l-.144-.308c-.496-.95-.711-2.09-.726-3.194q-.005-.479.037-.928l.087.228.177.468.492-.091.083-.015.095-.016.467-.087.024-.473c.131-2.618.707-5.06 1.847-7.296-.03.927.026 1.853.142 2.775l1.178.068c.321-1.311.857-2.54 1.458-3.781.52-1.072 1.099-2.178 1.593-3.316l.206-.49c.764-1.874 1.296-3.814 1.326-5.846q.04.1.078.203c.385 1.047.685 2.218.806 3.242l.041.428c.163 2.31-.342 4.532-1.136 6.779l1.032.578c.259-.32.456-.592.67-.846l.224-.25h.001q1.083-1.12 2.174-2.237l2.186-2.23c1.426-1.451 2.68-3.06 3.593-4.936v-.001c.53-1.09.868-2.002 1.048-3.063.083-.485.129-.996.15-1.562ZM15.039 25.075c-.553.63-1.115 1.258-1.665 1.894l-.545.638a2.6 2.6 0 0 0-.507.912l-.038.153v.002c-.149.742-.232 1.52-.353 2.355l-.248 1.717 1.255-1.196c.26-.247.508-.53.671-.7.141-.146.248-.241.342-.303l.09-.052h.001c.583-.28.986-.672 1.252-1.153.193-.35.304-.73.372-1.11l.056-.38c.061-.523.162-1.01.254-1.58.04-.25.076-.505.107-.712l.302-2.018z"/><path stroke="current" stroke-width="1.2" d="M40.703 14.941c.585 2.063.878 4.12.579 6.21l-.078.472c-.479 2.57-1.696 4.77-3.382 6.751l-.344.394c-1.316 1.47-2.8 2.754-4.352 3.999l-1.57 1.237c-1.847 1.44-3.587 3.029-5.064 4.9l-.292.378c-1.29 1.71-2.282 3.573-2.745 5.674a10.2 10.2 0 0 1-.65-3.352l-.004-.366c.016-2.213.772-4.188 2.046-5.932l.262-.346c1.296-1.656 2.73-3.16 4.16-4.755l.611-.69c.454-.517.9-1.04 1.341-1.559l.664-.776.667-.767c.142-.161.294-.3.443-.4l.147-.085c3.252-1.603 5.673-4.02 6.85-7.552l.11-.345a15.5 15.5 0 0 0 .6-3.09ZM22.315 8.108a4.64 4.64 0 0 1 .013 2.409l-.08.278a9 9 0 0 1-1.053 2.223l-.197.281v.001c-.391.532-.828 1.012-1.299 1.507q.024-.216.036-.436l.006-.337c-.009-.916.2-1.658.702-2.388l.232-.313h.001c.775-.968 1.303-2.061 1.639-3.225Z"/></svg>
